X:73
T:Wooton Underhedge Assembly
M:6/8
L:1/8
B:Thompson's Compleat Collection of 200 Favourite Country Dances, vol. 1 (London, 1757)
Z:Transcribed and edited by Fynnian Titford-Mock, 2007
Z:abc's:AK/Fiddler's Companion
K:G
d2d d2e|BcA B2G|d2e dcB|"tr"A3 G3::F2G A2B|AGF "tr"E2D|
A2B AGF|"tr"E3 D3|B2c d2e|BcA B2G|gfe dcB|"tr"A3 G3:|

